X:244
T: IN BOEHMEN LIEGT EIN STAEDTCHEN
N: E1383
O: Europa, Mitteleuropa, Deutschland, Hessen, Marburg; Lahn - Tal;
R: Staende -, Soldaten -, Kriegs - Lied
M: 2/4
L: 1/16
K: F
C2 | C3AA2A2 | A4F2
A2 | c3cc2d2 | c4z2
c2 | e3de2d2 | d4c2
B2 | A2c2G2c2 | F4z2

@@@ Tune index: 4928
